X:1     %Music
T:The Silver Wheat
B:Singing Together, Summer 1975, BBC Publications
F:http://www.folkinfo.org/songs
M:3/4     %Meter
L:1/8     %
K:D
D |DF A3 F |GG F3 G |AF D3 F | AA3-A
w:When I was young I wan-dered free, like wind a-cross the mead-_ow 
F |GG B3 G |FF A3 F |FE E3 (D/C/) | DD3-D
w:A-stray a-mong the sil-ver wheat with-out a path to_ fol-_low. 
D |DD d3 B |GG G3 F |EE e3 c | AA3-A
w:And wild-ly sang the sum-mer bird, and gai-ly danced the flow-_er. 
F |GG B3 G |FF A3 F |FE E3 (D/C/) | DD2-D |]
w:And ro-ving sun-light wove its dream of joys that last for--ev-_er. 